X:1
T:Title
%%score { ( 1 3 ) | 2 }
L:1/8
M:4/4
K:G
V:1 treble nm="Grand Piano"
V:3 treble 
V:2 bass 
V:1
 z4 z2[Q:1/4=100] B>A | G2 A2 B G2 A | [EG]2 [CE]2 [B,D]2 G>A | B2 [FA]2 B d2 e | %4
[M:9/8] d2 B- B [FA]2- [FA]B>A |[M:4/4] G2 [FA]2 B G2 A | [EG]2 [CE]2 [B,D]2 G>A | %7
 B d2 G [GB]2 [FA]2 |[M:3/4] G6 |[M:1/4] B>c |[M:4/4] d B2 d e2 d2 | B6 z2 | B G2 e d2 B2 | %13
 [FA]6 B>A | G2 [FA]2 B G2 A | [EG]2 [CE]2 [B,D]2 G>A | B d2 G [DGB]2 [CFA]2 | [B,G]6 z2 |] %18
V:2
 z4 z2 [G,D]>[G,C] | [G,B,]2 [D,F,D]2 [G,D] [G,B,D]2 [G,B,D] | %2
 [C,C]2 [C,G,]2 [G,,G,]2[K:treble] [G,B,D]>[G,CD] | [G,DG]2 [D,D]2 [G,DG] [G,B,G]2 [G,CG] | %4
[M:9/8] [G,B,G]2 [G,DG]- [G,DG][K:bass] [D,D]2- [D,D][K:treble][G,DG]>[G,CF] | %5
[M:4/4][K:bass] [G,B,]2 [D,D]2[K:treble] [G,DG] [G,B,D]2[K:bass] [G,B,D] | %6
 [C,C]2 [C,G,]2 [G,,G,]2 [G,B,D]>[K:treble][G,CD] | [G,DG] [G,B,G]2[K:bass] [G,B,] [D,D]2 [D,C]2 | %8
[M:3/4] [G,B,]6 |[M:1/4][K:treble] [G,G]>[G,A,G] | %10
[M:4/4] [G,B,G] [G,DG]2 [G,B,G] [G,CG]2 [G,B,G]2 | [G,DG]2 [G,D]2 [G,D]2 [G,B,D]>[G,CD] | %12
 [G,DG] [G,B,]2 [G,CG] [G,B,G]2 [G,DG]2 | [D,D]6 [G,DG]>[G,CF] | %14
 [G,B,]2 [D,D]2[K:treble] [G,DG] [G,B,D]2[K:bass] [G,B,D] | %15
 [C,C]2 [C,G,]2 [G,,G,]2 [G,B,D]>[K:treble][G,CD] | [G,DG] [G,B,G]2[K:bass] [G,B,] D,2 D,2 | %17
 G,,6 z2 |] %18
V:3
 x8 | x8 | x8 | x8 |[M:9/8] x9 |[M:4/4] x8 | x8 | x8 |[M:3/4] x6 |[M:1/4] x2 |[M:4/4] x8 | %11
 z2 G2 G2 G>A | x8 | x8 | x8 | x8 | x8 | x8 |] %18

